!!!OTL: 1371. Jch bin ja ein Deutscher. / [Hessisches Reiterlied.]
!!!ARE: Europa, Mitteleuropa, Deutschland, Hessen, Darmstadt; Giessen,
!!!SCT: E1371
!!!TXL: @@DE
!!!YEM: Copyright 1995, estate of Helmut Schaffrath.
**kern	**text
*ICvox	*
*M6/8	*
*k[f#]	*
*G:	*
!LO:TX:a:t=Aus Darmſtadt, Gießen, der Wetterau rc.	!
{8d	Jch
=1	=1
8B	bin
8d	ja
8d	ein
8c	Deut-
8e	-ſcher
8e	und
=2	=2
(4d	le-
8b)	.
4b}	-be
{8b	und
=3	=3
8.a	käm-
16g	-pfe
8f#	für
8a	Frei-
8g	-heit
8e	und
=4	=4
4.d	Recht.
4r}	.
{8d	Der
=5	=5
8.cc	Feind
16a	der
8g	ſtol-
8f#	-ʒirt,
8e	ſein
8d	Ar-
=6	=6
(4.b	-mee
4g)}	.
{8d	wird
=7	=7
8.e	im-
16e	-mer
8e	von
8f#	Deut-
8f#	-ſchen
8f#	ver-
=8	=8
(4.b	-acht,
8ccL)	.
8bJ}	.
{8a	wird
=9	=9
8.g	im-
16g	-mer
8g	von
8b/	Deutſchen
8b/	.
8a	ver-
=10	=10
4.g	-acht.
4r}	.
==	==
!!!AGN: Staende -, Soldaten -, Kriegs - Lied
!!!ONB: ESAC (Essen Associative Code) Database: ERK3
!!!AMT: compound duple
!!!AIN: vox
!!!EED: Helmut Schaffrath
!!!EEV: 1.0
!!!GTL: Staendelieder (Berufslieder). 1. Soldaten- und Kriegslieder. Soldatenlieder seit dem 30jaehr. Kriege.
!!!URL-scan: https://rosdok.uni-rostock.de/mcrviewer/recordIdentifier/rosdok_ppn745177999/iview2/phys_0245.iview2?x=-128.77276441889285&y=665.9371800210793&scale=0.5870222003877487&rotation=0&layout=singlePageLayout
!!!ENC: Anna Maria Matuszewska
!!!EEV: 2024/12/30
*-	*-
